!!!OTL: Der Postknecht (227), S. 489
!!!id: T0411
**kern
*clefG2
*k[b-]
*F:
{8c
=1
8.f
16f
4.f
8g
=2
8.a
16a
4.a}
=3
{8a
=4
8g
8a
4.b-
8e
=5
8g
8f}
4.r
=6
{8c
=7
8.f
16f
4.f
8g
8.a
16a
4.a}
=8
{8a
=9
8g
8a
4.b-
8e
=10
8g
8f}
4.r
=11
{8cc
=12
8cc
8ff
4.cc
8b-
=13
8a
8cc
4f}
8r
=14
{8cc
=15
8cc
8ff
4.cc
8b-
=16
8a
8cc
4f}
8r
=17
{8cc
=18
8cc
8ff
8a}
8r
=19
{8cc
=20
8cc
8ff
8a}
8r
=21
{8c
=22
8f
8f
16a
16a
8cc
8ff
16a
16a
=23
8g
8a
16g
16g
8f
8f}
=24
{8c
=25
8f
8f
16a
16a
8cc
8ff
16a
16a
=26
8g
8a
16g
16g
8f}
8r
=27
{16cc
16cc
16cc
16cc
=28
16ff
16a
16a
16a
=29
16g
16g
16a
16a
=30
16f
16f
16f
16f}
=31
{16cc
16cc
16cc
16cc
=32
16ff
16a
16a
16a
=33
16a
16a
16g
16a
=34
16g
16g
8f}
==
*-
!!!minrhy: 16
!!!meters: FREI]  ZZ[12 interpreted as [0/4, 0/4]
!!!cut: Der Postknecht (227), S. 489
!!!reg: Luxemburg
!!!trd: Singendes Volk, Esch-Alzette, 1937 posth.
!!!rhy1: X_  X_.XX__.X_  X_.XX__.
!!!rhy2: X_  X_X_X__.X_  X_X_0__.
!!!key: T0411  16  F FREI]  ZZ[12
!!!mod: SECHSTONSKALA DUR ?]  AMBITUS[11
!!!kad: 313111331111
!!!akz: -513_322_-513_322_553_553_55_55_-512_-512_5+121_5+132_
!!!fot: 'a__b__a__b__c__c__d__d__e__e__ew_ev_
!!!for: 'a__b__av_b__c__c__cw_cw_d__d__e__f__
!!!fok: '/__\__/__\__^d_^d_^d_^d_^a_^a_^d_^d_
!!!fkt: Berufslied
!!!bem1: Blascheid, fff Michel Kaisen, 1902
!!!bem2: (228)- Consdorf, Liederheft, 1848-51
!! THILL; Mathias
!! PR[32] 2K[5] 2G[10] 3K[2] 3G[2] 4A[10] 4Ü[0] 5A[0] 6K[0] 6G[0]
!! 7K[0] 7G[0] 8A[0] MEHR[0] SI[29] ABS[41] SR[15] SP[15]
!! ST[8] 2k[10] 2g[22] 3k[5] 3g[2] 4d[0] 4ü[0] 5d[0] 6k[0] 6g[0]
!! 7k[0] 7g[0] 8d[0] mehr[0] si[39] dm[-10] sr[32] sp[7]
!! 1F[72] 2F[21] 3F[2] 4F[0] LF[0] 2P[4] 3P[0] 4P[0] TRI[0] DF[4] AB[47]
!! TF[0] U3K[0] U3[0] U4[0] U4Ü[0] U5[14] U6K[0] U6[10] U7K[0] U7[10]
!! N1[33] N2K[0] N2[17] N3K[0] N3[10] N4[5] N4Ü[0] N5[2] N6K[0] N6[0]
!!!n7k: 0] N7[0] O1[0] O2K[0] O2[0] O3K[0] O3[0] HÖ[0
